X: 20556
T: John Murphy's
R: slide
M: 12/8
K: Dmajor
|:F2G ABA F2G ABA|B2e e2d c2B cBA|
F2G ABA F2G ABA|1 B2e e2A B2c d3:|2 B2e e2A B2c d2e||
|:f3 f2e d2cB2A|B2e e2d c2B cBA|
f3 f2e d2cB2A|1 B2e e2A B2c d2e:|2 B2e e2A B2c d3||

